tools/download-figma-icons/icons/outlined-medium/umbrella.svg

<svg width="24" height="24" viewBox="0 0 24 24" fill="none" xmlns="http://www.w3.org/2000/svg">
<path fill-rule="evenodd" clip-rule="evenodd" d="M20.1746 17.8522C19.4434 17.1202 18.4894 16.6897 17.4334 16.7213C17.2286 16.7213 17.0299 16.7498 16.8311 16.7812C17.0186 15.5977 16.6684 14.346 15.7609 13.4377C14.8519 12.5295 13.6001 12.18 12.4166 12.3675C12.6041 11.1832 12.2546 9.93225 11.3464 9.024C10.4381 8.11575 9.18714 7.7655 8.00289 7.953C8.03439 7.755 8.06289 7.5555 8.06364 7.3515C8.06514 6.315 7.66389 5.34075 6.93189 4.6095C6.44814 4.125 5.86164 3.8145 5.24439 3.64125C6.92889 2.733 8.82114 2.25 10.7884 2.25C13.9166 2.25 16.8574 3.468 19.0691 5.67975C21.2809 7.8915 22.4989 10.8315 22.4989 13.9598C22.4989 15.9157 22.0219 17.7983 21.1241 19.476C20.9464 18.8827 20.6419 18.3195 20.1746 17.8522ZM20.6329 5.17575L22.4719 3.33675C22.7651 3.04425 22.7651 2.5695 22.4719 2.27625C22.1786 1.98375 21.7046 1.98375 21.4114 2.27625L19.5731 4.1145C17.1506 1.94775 14.0651 0.75 10.7884 0.75C7.26038 0.75 3.94313 2.124 1.44788 4.6185C1.15538 4.91175 1.15538 5.3865 1.44788 5.67975C1.74113 5.97225 2.21588 5.97225 2.50838 5.67975C3.43838 4.74975 4.94663 4.746 5.87138 5.67C6.31913 6.11775 6.56513 6.71325 6.56363 7.34775C6.56213 7.98375 6.31313 8.58225 5.86238 9.033C5.56913 9.3255 5.56913 9.80025 5.86238 10.0935C6.00863 10.2397 6.20063 10.3132 6.39263 10.3132C6.58463 10.3132 6.77663 10.2397 6.92288 10.0935C7.85213 9.1635 9.36113 9.15975 10.2859 10.0845C11.2099 11.0085 11.2061 12.5175 10.2769 13.4467L4.31513 19.4085C3.67238 20.0512 2.62613 20.052 1.98188 19.4085C1.33838 18.765 1.33838 17.718 1.98188 17.0745C2.27438 16.782 2.27438 16.3072 1.98188 16.014C1.68863 15.7215 1.21388 15.7215 0.921375 16.014C-0.307125 17.2425 -0.307125 19.2405 0.921375 20.469C1.53488 21.0832 2.34188 21.39 3.14813 21.39C3.95513 21.39 4.76213 21.0832 5.37638 20.469L11.3374 14.508C12.2666 13.5772 13.7749 13.5742 14.7004 14.4982C15.6244 15.423 15.6206 16.932 14.6906 17.8612C14.3981 18.1545 14.3981 18.6292 14.6906 18.9217C14.8376 19.0687 15.0296 19.1415 15.2216 19.1415C15.4129 19.1415 15.6049 19.0687 15.7519 18.9217C16.2026 18.471 16.8004 18.2227 17.4364 18.2212H17.4416C18.0739 18.2212 18.6679 18.4665 19.1141 18.9127C19.8971 19.6957 20.0066 20.895 19.4591 21.8092C19.3294 21.9525 19.2064 22.1017 19.0691 22.2397C18.7759 22.5322 18.7759 23.007 19.0691 23.3002C19.0751 23.3062 19.0834 23.3077 19.0901 23.3137C19.0969 23.3212 19.0984 23.3295 19.1051 23.3362C19.2514 23.4825 19.4434 23.556 19.6354 23.556C19.8274 23.556 20.0186 23.4825 20.1656 23.3362C20.3666 23.1352 20.5369 22.9155 20.6854 22.6852C25.0931 17.691 25.0751 10.1505 20.6329 5.17575Z" fill="black"/>
</svg>

<svg xmlns="http://www.w3.org/2000/svg" width="24" height="24" fill="none" viewBox="0 0 24 24"><path fill="currentColor" fill-rule="evenodd" d="M20.175 17.852c-.732-.732-1.686-1.162-2.742-1.13-.204 0-.403.028-.602.06a3.86 3.86 0 0 0-1.07-3.344 3.86 3.86 0 0 0-3.344-1.07 3.85 3.85 0 0 0-1.07-3.344 3.85 3.85 0 0 0-3.344-1.071c.031-.198.06-.397.06-.602a3.84 3.84 0 0 0-1.13-2.741 3.8 3.8 0 0 0-1.688-.968 11.64 11.64 0 0 1 5.544-1.391c3.129 0 6.07 1.218 8.281 3.43a11.63 11.63 0 0 1 3.43 8.28c0 1.956-.477 3.838-1.375 5.516a3.8 3.8 0 0 0-.95-1.624m.458-12.676 1.839-1.84a.75.75 0 1 0-1.06-1.06l-1.839 1.838A13.1 13.1 0 0 0 10.788.75a13.13 13.13 0 0 0-9.34 3.869.75.75 0 0 0 1.06 1.061 2.38 2.38 0 0 1 3.363-.01 2.377 2.377 0 0 1-.009 3.363.75.75 0 1 0 1.06 1.06 2.38 2.38 0 0 1 3.364-.008 2.38 2.38 0 0 1-.01 3.362l-5.96 5.962a1.65 1.65 0 0 1-2.334 0 1.65 1.65 0 0 1 0-2.334.75.75 0 0 0-1.06-1.061 3.153 3.153 0 0 0 0 4.455c.613.614 1.42.921 2.226.921.807 0 1.614-.307 2.228-.921l5.961-5.961a2.38 2.38 0 0 1 3.363-.01c.924.925.92 2.434-.01 3.363a.75.75 0 0 0 1.062 1.06 2.37 2.37 0 0 1 1.684-.7h.006c.632 0 1.226.245 1.672.692.783.783.893 1.982.345 2.896-.13.143-.253.293-.39.43a.75.75 0 0 0 0 1.061l.021.014c.007.007.008.015.015.022a.75.75 0 0 0 1.06 0c.202-.2.372-.42.52-.65 4.408-4.995 4.39-12.535-.052-17.51" clip-rule="evenodd"/></svg>
